X: 05056
T: The MARSHALL OF BRISTOL
C: Bob McQuillen 7 March 81
B: Bob's Note Book 5 #56
%R: jig
Z: 2021 John Chambers <jc:trillian.mit.edu>
M: 6/8
L: 1/8
K: D
A, \
| DA,D FDF | Adc B2A | GBG FAd | cBA GFE  | DA,D FDF | AdA B2A | Bcd def | gfg ede |
| fdf  eag | fed B2A | Bcd AFD | DEF E2A, | DA,D FDF | Adc B2A | Bcd ede | fdd d2 |]
[| f \
| afa geg | fdf e2A | dfd efe | dfa a2f | afa geg | fdf e2A | dfd efa | bab a2a |
| bgb afa | geg f2d | geg fdf | ecA A2G | FAd cde | dfa a2f | gab afe | fdd d2 |]
%%begintext align
%% Jim Marshall of the
%% Danbury-Bristol area sure gave us a warm
%% welcome when we played music up his way -
%%endtext

%%sep 1 1 500

%%sep 1 1 500

